X:471
%%etbk:tnset id:190,pos:1,rep:3,ant:
T:Whiskey in the Jar
H: Created 2013-03-06 /  Modified 2013-03-06
R: song
M:C|
L:1/8
Q:1/4=220
K:Amaj
"A," E2 | !2!C2!3!E2E2!4!F2 | !3!E2!2!C4!1!B,2 | "Fm" !2!C2 !4!F2F2!5!G2 | !4!F2!2!C4!3!E2 |
"D" !4!F2!3!F2F2!4!G2 | !5!AA3G2F2 | "A," !2!E2E2A2G2 | !3!F2!2!C4!3!E2 | 
!2!C2!3!E2E2F2 | !3!E2!2!C4!1!B,2 | "Fm" !2!C2!4!F2F2G2 | !4!F2!2!C4!3!E2 |
"D" !4!F4!3!F3!4!G | !5!A2A2G2F2 | "A," !2!E2E2!5!A3G | !3!F!1!E3!3!C2!1!A,2 | 
"E7" !2!B,2 !2!B,!1!B, !2!B,!1!B, !2!B,!1!A, | !2!B,8 | "A," z2 !3!C2 C3 B, | !3!C2 !5!E2 "A,7" E4 |
"D" z2 !3!F2 F3 E | !3!F2G2!5!A3!3!F | "A," !1!E2!3!C2 "E7" !2!B,2 C2 | "A," !1!A,6 |]


